X:147
T:Gondola Air. CJF.147
R:Waltz
S:C.J.Fox MS, 1829/33, Beverley,E.Yorks.
B:Kidson Coll.Mitchell Lib.M1805
O:England
A:East Yorkshire
Z:vmp.P J Headford 2000 & 2008
M:3/8
L:1/16
Q:1/8=120
K:D
AG|”p”(Fd) A2 (FA)|(GE) C2 (Ac)|(dGdf)af|(ag) e2 (AG)|\
(Fd) A2 (FA)|(BG) E2 (ge)|dcBABc|{e}d4h:||!
” f”(fa)|(gecAec)|(dfdAdf)|(agecdf)|(ec) A2 (fa)|\
(gecAec)|(dfdAdf)|(agecdf)|e” D.C.”cA2|]

